X:1
T:6 Lieder, Op.48
T:Gottes Macht und Vorsehung
T:6 Lieder, Op.48 
T:5. Gottes Macht und Vorsehung
T:Ludwig van Beethoven
T:Christian Fürchtegott Gellert
T:OpenScore (CC0)
C:Ludwig van Beethoven
Z:Christian Fürchtegott Gellert
Z:OpenScore (CC0)
%%score 1 { 2 | 3 }
L:1/8
Q:1/4=140
M:2/2
K:C
V:1 treble nm="Singstimme\nVoice"
V:2 treble nm="Pianoforte"
V:3 bass 
V:1
"^Mit Kraft und Feuer" z4 c4 | B4 G4 | A6 B2 | c6 d2 | e4 ^f4 | g4 G2 z2 | z2 =f2 d2 B2 | G6 F2 | %8
w: Gott|ist mein|Lied! Er|ist der|Gott der|Stär- ke;|hehr ist sein|Nam' und|
 E3 d d3 d | d2 c2 z2 c2 | f6 f2 | f6 e2 | d4 G4 | c4 z4 | z8 | z8 | z8 | z8 |] %18
w: gross sind  sei- ne|Wer- ke, und|al- le|Him- mel|sein Ge-|biet.|||||
V:2
 z4!f! [Cc]4 | [B,B]4 G4 | [A,A]6 [B,B]2 | [Cc]6 [Dd]2 | [Ece]4 [^Fc^f]4 | [GBg]4 G2 z2 | %6
 z2!f! .=f2 .d2 .B2 | [G,DG]6 [A,CF]2 | [B,E]3 [Ed] [Ed]3 [Ed] | .[Ed]2 .[Ec]2 z2 c2 | %10
 [Ff]6 [Ff]2 | [Ff]6 [Ee]2 |!ff! [Dd]4 [B,DFG]4 | .[CEGc]2 .[Cc]2!f! [Gg]4- | [Gg]2 [A,A]2 [Ff]4- | %15
 [Ff]2 .[Ee]2 .[Acd]2 .[FBd]2 | .[EGc]2 z2 .[DGB]2 z2 | [EGc]8 |] %18
V:3
!f! [C,,C,]8 | [G,,G,]8- | [G,,G,]4 [F,,F,]4 | [E,,E,]2 [D,,D,]2 [C,,C,]2 [B,,,B,,]2 | [A,,,A,,]8 | %5
 [G,,,G,,]4 [G,,G,]2 z2 | z8 | z2 B,,,2 B,,2 A,,2 | ^G,,3 [^G,B,] [G,B,]3 [G,B,] | %9
 .[^G,B,]2 .[A,C]2 z4 | z4!ff! [A,,C,F,A,]2 [A,,C,F,A,]2 | [B,,D,=G,B,]6 [C,E,G,C]2 | %12
 [F,,A,,D,F,]4 [G,,B,,D,G,]4 | [C,,C,]6 [E,,E,]2 | [F,,F,]6 [D,,D,]2 | %15
 [B,,,B,,]2 .[C,,C,]2 .[F,,,F,,]2 .[G,,,G,,]2 | .[C,,C,]2 z2 .[G,,,G,,]2 z2 | [C,,C,]8 |] %18

